!!!COM: Ives, Charles
!!!OTL: String Quartet No. 1
!!!OMV: IV: Postlude: Allegro marziale
!!!example: 233
!!!work: Ive-4
**kern	**dynam	**kern	**dynam	**kern	**dynam	**kern	**dynam
*part4	*part4	*part3	*part3	*part2	*part2	*part1	*part1
*staff4	*	*staff3	*	*staff2	*	*staff1	*
*I"Violoncello	*	*I"Viola	*	*I"Violin II	*	*I"Violin I	*
*I'Vc.	*	*I'Vla.	*	*I'Vln. II	*	*I'Vln. I	*
*clefF4	*	*clefC3	*	*clefG2	*	*clefG2	*
*k[f#]	*	*k[f#]	*	*k[f#]	*	*k[f#]	*
*G:	*	*G:	*	*G:	*	*G:	*
*M3/4	*	*M3/4	*	*M3/4	*	*M3/4	*
*MM121	*	*MM121	*	*MM121	*	*MM121	*
=147	=	=	=	=	=	=	=
4.GG^ 4.D 4.G	ff	4B	mf	8dL	mf	(4gg^^	mf
.	.	.	.	8gJ	.	.	.
.	.	12BL	.	[4g	.	4ee	.
.	.	12A	.	.	.	.	.
8G	.	.	.	.	.	.	.
.	.	[12GJ	.	.	.	.	.
4GG^ 4D 4B	.	4G	.	8gL]	.	4dd	.
.	.	.	.	8aJ	.	.	.
=148	=148	=148	=148	=148	=148	=148	=148
4G	.	12F#L	.	8bL	.	4.b^^	.
.	.	12E	.	.	.	.	.
.	.	.	.	8dJ	.	.	.
.	.	12DJ	.	.	.	.	.
2CC^^ 2C	.	8GL	.	[4c [4e	.	.	.
.	.	8cJ	.	.	.	8a	.
.	.	4c	.	(12cL] 12e]	.	4g)	.
.	.	.	.	12d 12f#	.	.	.
.	.	.	.	[12eJ [12g	.	.	.
=149	=149	=149	=149	=149	=149	=149	=149
4C^^	.	4B	.	12eL 12g	.	(4gg^^	.
.	.	.	.	12a	.	.	.
.	.	.	.	12bJ	.	.	.
4E	.	4c	.	8aL	.	4ee	.
.	.	.	.	8gJ)	.	.	.
4GG^ 4D	.	12BL	.	4g	.	4dd	.
.	.	12A	.	.	.	.	.
.	.	12GJ	.	.	.	.	.
=150	=150	=150	=150	=150	=150	=150	=150
*	*	*^	*	*	*	*	*
4G	.	4E 4c#X	4ryy	.	(8eL	.	2a	.
.	.	.	.	.	8aJ)	.	.	.
4DD^ 4A	.	12cnL	4D	.	4f# 4a	.	.	.
.	.	12d	.	.	.	.	.	.
.	.	12eJ	.	.	.	.	.	.
4B	.	4d	4ryy	.	4g	.	8.gL)	.
.	.	.	.	.	.	.	16bJk	.
*	*	*v	*v	*	*	*	*	*
=151	=151	=151	=151	=151	=151	=151	=151
2.DD 2.D 2.A	.	(8AL	.	[4f# [4a	.	(4cc	.
.	.	8dJ)	.	.	.	.	.
.	.	4.d	.	12f#L] 12a]	.	4ee	.
.	.	.	.	12e 12g	.	.	.
.	.	.	.	12dJ 12f#	.	.	.
.	.	.	.	8dL 8f#	.	4cc)	.
.	.	8e	.	8eJ	.	.	.
=152	=152	=152	=152	=152	=152	=152	=152
4D	.	8f#L	.	4d	.	(4b	.
.	.	8dJ	.	.	.	.	.
4.GG 4.D 4.G	.	4B 4g	.	8dL	.	4dd	.
.	.	.	.	8gJ	.	.	.
.	.	12BL	.	4g	.	4b)	.
.	.	12c	.	.	.	.	.
8G	.	.	.	.	.	.	.
.	.	12dJ	.	.	.	.	.
=153	=153	=153	=153	=153	=153	=153	=153
!!linebreak:original
4BB 4B	.	[4d#X	.	[4f#	.	8aL	.
.	.	.	.	.	.	16bL	.
.	.	.	.	.	.	16ccJJ	.
4A	.	12d#L]	.	12f#L]	.	4cc	.
.	.	12e	.	12g	.	.	.
.	.	[12d#J	.	[12f#J	.	.	.
[4GG^ [4G	.	12d#L	.	12f#L	.	4a	.
.	.	12e	.	12g	.	.	.
.	.	12cJ	.	12eJ	.	.	.
=154	=154	=154	=154	=154	=154	=154	=154
4GG] 4G]	.	8BL	.	8eL	.	2g	.
.	.	8eJ	.	8BJ	.	.	.
4E	.	4.e	.	12cL	.	.	.
.	.	.	.	12B	.	.	.
.	.	.	.	12AJ	.	.	.
4E	.	.	.	[4B	.	4gg	.
.	.	8f#	.	.	.	.	.
=155	=155	=155	=155	=155	=155	=155	=155
4DD 4D	.	2g 2b	.	12BL]	.	4ff#	.
.	.	.	.	12c	.	.	.
.	.	.	.	[12dJ	.	.	.
4G	.	.	.	8dL	.	4ee	.
.	.	.	.	8gJ	.	.	.
4B	.	12dL	.	4g	.	4dd	.
.	.	12e	.	.	.	.	.
.	.	12dJ	.	.	.	.	.
=156	=156	=156	=156	=156	=156	=156	=156
4AA 4A	.	4d#X	.	12f#L	.	2b	.
.	.	.	.	12g	.	.	.
.	.	.	.	12f#J	.	.	.
[2GG [2G	.	12dnL	.	2f#	.	.	.
.	.	12e	.	.	.	.	.
.	.	12dJ	.	.	.	.	.
.	.	8cL	.	.	.	8aaL	.
.	.	8BJ	.	.	.	8ggJ	.
=157	=157	=157	=157	=157	=157	=157	=157
4GG] 4G]	.	4c	.	(12eL	.	4ee	.
.	.	.	.	12f#	.	.	.
.	.	.	.	[12gJ)	.	.	.
8DL	.	4B	.	4g	.	4dd	.
16CL	.	.	.	.	.	.	.
16DJJ	.	.	.	.	.	.	.
[4AA [4A	.	8c#XL	.	[4e	.	4b	.
.	.	16B#XL	.	.	.	.	.
.	.	[16c#JJ	.	.	.	.	.
=158	=158	=158	=158	=158	=158	=158	=158
8AAL] 8A]	.	4c#]	.	4e]	.	4a	.
8AJ	.	.	.	.	.	.	.
4GG#X 4G#X	.	2d	.	12fnL	.	4.cc	.
.	.	.	.	12e	.	.	.
.	.	.	.	[12fJ	.	.	.
4AA 4A	.	.	.	4f	.	.	.
.	.	.	.	.	.	16bLL	.
.	.	.	.	.	.	16aJJ	.
==	==	==	==	==	==	==	==
*-	*-	*-	*-	*-	*-	*-	*-
!!!CDT: 1874/10/20-1954/05/19
!!!CBL: Danbury, United States
!!!CDL: New York, United States
!!!CNT: American
!!!AGN: Instrumental; Chamber
!!!MCN:
!!!MDT: 1957/04/24
!!!MGN: Kohon String Quartet
!!!MLC: New York, New York, United States of America
!!!MPD: 1957
!!!MPN: Bellam, Paul; Kay, Richard; Kohon, Harold; Kunicki, Raymond
!!!ODT: 1909
!!!PDT: 1961
!!!excerpt-start-measure: 147
!!!excerpt-end-measure: 158
!!!excerpt-start-time: 4:09
!!!excerpt-end-time: 4:29
!!!EEV: 2020/01/17
!!!system-decoration: [(s1,s2,s3,s4)]
!!!ONB: Converted from MusicXML on 2020/01/17
